X:1
T:Title
%%score { ( 1 3 ) | ( 2 4 ) }
L:1/8
M:4/4
K:C
V:1 treble nm="Grand Piano"
V:3 treble 
V:2 bass 
V:4 bass 
V:1
 z4 z2[Q:1/4=94] [EG][EG] | [Ec]>[Ec] [Ec]>[Ec] [Ec]>[EG] [EG][Ec] |[M:3/4] [FB]>[FA] A>^G A2 | %3
[M:1/4] cc |[M:4/4] B6 z2 | G6 z2 |[M:3/4] [Ec]>[Ec] [Ec]>[Ec] [Ec]>[EG] |[M:1/4] [EG][Ec] | %8
[M:4/4] [FB]>[FA] A>^G A2 dc | B6 z2 |[M:3/4] c6 |[M:1/4] GG |[M:4/4] d6 z2 | e6 z2 | %14
 [Gd]>[GB] [GB]>[GB] [Gd]>[EGc] [DGB][C^FA] |[M:3/4] G6 |[M:1/4] [B,FG][B,FG] |[M:4/4] c6 z2 | %18
 [Af]6 z2 | c>c c>c B2 [Fd]2 |[M:3/4] c6 |] %21
V:2
 z4 z2 [C,C][C,C] | [C,G,]>[C,G,] [C,G,]>[C,G,] [C,G,]>[C,C] [C,C][B,,G,] | %2
[M:3/4] [D,G,]>[D,G,][K:treble] [G,B,F]>[G,DF] [G,B,F]2 |[M:1/4] [G,DF][G,DF] | %4
[M:4/4] [DF]2 D>D D2 [G,B,F][G,DF] | [C,C]2 [C,C]>[C,C] [C,C]2 [C,C][C,C] | %6
[M:3/4] [C,G,]>[C,G,] [C,G,]>[C,G,] [C,G,]>[C,C] |[M:1/4] [C,C][C,G,] | %8
[M:4/4] [D,G,]>[D,G,][K:treble] [G,B,F]>[G,DF] [G,B,F]2 [G,B,F][G,DF] | [G,D]2 z2 z4[K:bass] | %10
[M:3/4] z2 A,>A, G,2 |[M:1/4][K:treble] EE |[M:4/4] F6 z2 | G6[K:bass] z2 | %14
 [D,B,]>[D,D] [D,D]>[D,D] [D,B,]>D, D,D, |[M:3/4] z2 B,>C D2 |[M:1/4] G,G, | %17
[M:4/4] z2 A,>A, G,2 [B,,G,][C,C] | [F,C]2 F,>F, D,2 [E,C][F,CF] | %19
 [G,E]>[G,E] [G,E]>[G,E] [G,D]2 [G,,G,]2 |[M:3/4] G,2 A,>A, G,2 |] %21
V:3
 x8 | x8 |[M:3/4] x6 |[M:1/4] x2 |[M:4/4] z2 F>F F2 AB | E2 E>E E2 [EG][EG] |[M:3/4] x6 | %7
[M:1/4] x2 |[M:4/4] x8 | z2 D>D D2 [DFA][DFB] |[M:3/4] [CE]2 F>F E2 |[M:1/4] x2 | %12
[M:4/4] z2 B,>B, B,2 GG | z2 C>C C2 [Ge][Ge] | x8 |[M:3/4] [B,D]2 D>E F2 |[M:1/4] x2 | %17
[M:4/4] [CE]2 F>F E2 [Fd][Ge] | z2 C>C D2 [Ge]d | x8 |[M:3/4] E2 F>F E2 |] %21
V:4
 x8 | x8 |[M:3/4] x2[K:treble] x4 |[M:1/4] x2 |[M:4/4] G,6 z2 | x8 |[M:3/4] x6 |[M:1/4] x2 | %8
[M:4/4] x2[K:treble] x6 | F2- [G,F-]>[G,F-] [G,F]2[K:bass] G,G, |[M:3/4] C,6 | %11
[M:1/4][K:treble] x2 |[M:4/4] z2 G,>G, G,2 FF | z2[K:bass] C,>C, C,2 [C,C][C,C] | x8 |[M:3/4] G,6 | %16
[M:1/4] x2 |[M:4/4] C,6 z2 | x8 | x8 |[M:3/4] C,6 |] %21

